Pods/ProtonCore-UIFoundations/libraries/UIFoundations/Sources/Assets.xcassets/Images/IconSet/ic-envelopes.imageset/ic-envelopes.svg

<svg width="24" height="24" viewBox="0 0 24 24" fill="none" xmlns="http://www.w3.org/2000/svg">
<path fill-rule="evenodd" clip-rule="evenodd" d="M6.3 3H17.7C18.5648 3 19.1232 3.00117 19.5482 3.03589C19.9557 3.06918 20.1068 3.1257 20.181 3.16349C20.4632 3.3073 20.6927 3.53677 20.8365 3.81901C20.8743 3.89318 20.9308 4.04426 20.9641 4.45175C20.975 4.58467 20.9825 4.73064 20.9878 4.89495C20.9465 4.87134 20.9045 4.84867 20.862 4.82698C20.2202 4.5 19.3802 4.5 17.7 4.5H6.3C4.61984 4.5 3.77976 4.5 3.13803 4.82698C3.09547 4.84867 3.0535 4.87133 3.01217 4.89494C3.01745 4.73063 3.02503 4.58467 3.03589 4.45175C3.06918 4.04426 3.1257 3.89318 3.16349 3.81901C3.3073 3.53677 3.53677 3.3073 3.81901 3.16349C3.89318 3.1257 4.04426 3.06918 4.45175 3.03589C4.87676 3.00117 5.43517 3 6.3 3ZM3 12.326V17.7C3 18.5648 3.00117 19.1232 3.03589 19.5482C3.06918 19.9557 3.1257 20.1068 3.16349 20.181C3.3073 20.4632 3.53677 20.6927 3.81901 20.8365C3.89318 20.8743 4.04426 20.9308 4.45175 20.9641C4.87676 20.9988 5.43517 21 6.3 21H17.7C18.5648 21 19.1232 20.9988 19.5482 20.9641C19.9557 20.9308 20.1068 20.8743 20.181 20.8365C20.4456 20.7017 20.6638 20.4916 20.8085 20.2333C20.8182 20.2161 20.8275 20.1986 20.8365 20.181C20.8719 20.1115 20.9238 19.9743 20.9576 19.6217C20.9599 19.5982 20.962 19.5737 20.9641 19.5482C20.9988 19.1232 21 18.5648 21 17.7V12.326L13.1792 17.1387C12.4561 17.5838 11.5439 17.5838 10.8208 17.1387L3 12.326ZM1.5 9.3V6.3C1.5 4.61984 1.5 3.77976 1.82698 3.13803C2.1146 2.57354 2.57354 2.1146 3.13803 1.82698C3.77976 1.5 4.61984 1.5 6.3 1.5H17.7C19.3802 1.5 20.2202 1.5 20.862 1.82698C21.4265 2.1146 21.8854 2.57354 22.173 3.13803C22.5 3.77976 22.5 4.61984 22.5 6.3V9.3V12.3V17.7C22.5 19.3802 22.5 20.2202 22.173 20.862C21.8854 21.4265 21.4265 21.8854 20.862 22.173C20.2202 22.5 19.3802 22.5 17.7 22.5H6.3C4.61984 22.5 3.77976 22.5 3.13803 22.173C2.57354 21.8854 2.1146 21.4265 1.82698 20.862C1.5 20.2202 1.5 19.3802 1.5 17.7V12.3V9.3ZM17.7 6H6.3C5.43517 6 4.87676 6.00117 4.45175 6.03589C4.04426 6.06918 3.89318 6.1257 3.81901 6.16349C3.53677 6.3073 3.3073 6.53677 3.16349 6.81901C3.1257 6.89318 3.06918 7.04426 3.03589 7.45175C3.02503 7.58467 3.01745 7.73063 3.01217 7.89494C3.0535 7.87133 3.09547 7.84867 3.13803 7.82698C3.77976 7.5 4.61984 7.5 6.3 7.5H17.7C19.3802 7.5 20.2202 7.5 20.862 7.82698C20.9045 7.84867 20.9465 7.87134 20.9878 7.89495C20.9825 7.73064 20.975 7.58467 20.9641 7.45175C20.9308 7.04426 20.8743 6.89318 20.8365 6.81901C20.6927 6.53677 20.4632 6.3073 20.181 6.16349C20.1068 6.1257 19.9557 6.06918 19.5482 6.03589C19.1232 6.00117 18.5648 6 17.7 6ZM20.9734 10.5811L12.3931 15.8613C12.152 16.0096 11.848 16.0096 11.6069 15.8613L3.0266 10.5811C3.02939 10.5366 3.03248 10.4935 3.03589 10.4518C3.06918 10.0443 3.1257 9.89318 3.16349 9.81901C3.3073 9.53677 3.53677 9.3073 3.81901 9.16349C3.89318 9.1257 4.04426 9.06918 4.45175 9.03589C4.87676 9.00117 5.43517 9 6.3 9H17.7C18.5648 9 19.1232 9.00117 19.5482 9.03589C19.9557 9.06918 20.1068 9.1257 20.181 9.16349C20.4632 9.3073 20.6927 9.53677 20.8365 9.81901C20.8743 9.89318 20.9308 10.0443 20.9641 10.4518C20.9675 10.4935 20.9706 10.5366 20.9734 10.5811Z" fill="#0C0C14"/>
</svg>

<svg xmlns="http://www.w3.org/2000/svg" width="24" height="24" viewBox="0 0 24 24">
  <g class="ic-envelopes">
    <path fill-rule="evenodd" d="M6.3 3h11.4c.865 0 1.423.001 1.848.036.408.033.559.09.633.127a1.5 1.5 0 0 1 .655.656c.038.074.095.225.128.633.011.133.019.279.024.443a3.016 3.016 0 0 0-.126-.068C20.22 4.5 19.38 4.5 17.7 4.5H6.3c-1.68 0-2.52 0-3.162.327a3 3 0 0 0-.126.068c.005-.164.013-.31.024-.443.033-.408.09-.559.127-.633a1.5 1.5 0 0 1 .656-.656c.074-.037.225-.094.633-.127C4.877 3 5.435 3 6.3 3ZM3 12.326V17.7c0 .865.001 1.423.036 1.848.033.408.09.559.127.633a1.5 1.5 0 0 0 .656.655c.074.038.225.095.633.128C4.877 21 5.435 21 6.3 21h11.4c.865 0 1.423-.001 1.848-.036.408-.033.559-.09.633-.127a1.5 1.5 0 0 0 .655-.656c.036-.07.088-.207.122-.56l.006-.073C21 19.123 21 18.565 21 17.7v-5.374l-7.82 4.813a2.25 2.25 0 0 1-2.36 0L3 12.326ZM1.5 9.3v-3c0-1.68 0-2.52.327-3.162a3 3 0 0 1 1.311-1.311C3.78 1.5 4.62 1.5 6.3 1.5h11.4c1.68 0 2.52 0 3.162.327a3 3 0 0 1 1.311 1.311c.327.642.327 1.482.327 3.162v11.4c0 1.68 0 2.52-.327 3.162a3 3 0 0 1-1.311 1.311c-.642.327-1.482.327-3.162.327H6.3c-1.68 0-2.52 0-3.162-.327a3 3 0 0 1-1.311-1.311C1.5 20.22 1.5 19.38 1.5 17.7V9.3ZM17.7 6H6.3c-.865 0-1.423.001-1.848.036-.408.033-.559.09-.633.127a1.5 1.5 0 0 0-.656.656c-.037.074-.094.225-.127.633a8.534 8.534 0 0 0-.024.443 3 3 0 0 1 .126-.068C3.78 7.5 4.62 7.5 6.3 7.5h11.4c1.68 0 2.52 0 3.162.327.043.022.085.044.126.068a9.011 9.011 0 0 0-.024-.443c-.033-.408-.09-.559-.127-.633a1.5 1.5 0 0 0-.656-.656c-.074-.037-.225-.094-.633-.127C19.123 6 18.565 6 17.7 6Zm3.273 4.581-8.58 5.28a.75.75 0 0 1-.786 0l-8.58-5.28c.002-.044.005-.088.009-.13.033-.407.09-.558.127-.632a1.5 1.5 0 0 1 .656-.656c.074-.037.225-.094.633-.127C4.877 9 5.435 9 6.3 9h11.4c.865 0 1.423.001 1.848.036.408.033.559.09.633.127a1.5 1.5 0 0 1 .655.656c.038.074.095.225.128.633l.01.13Z" class="Icon"/>
  </g>
</svg>
